src/static/logos/google-cloud-platform.svg

<?xml version="1.0" encoding="UTF-8"?>
<svg width="256px" height="228px" viewBox="0 0 256 228" version="1.1" xmlns="http://www.w3.org/2000/svg" xmlns:xlink="http://www.w3.org/1999/xlink" preserveAspectRatio="xMidYMid">
    <g>
        <path d="M166.984929,181.719198 L140.848937,227.152264 L72.4009521,227.152264 C66.294274,227.152264 60.6550385,223.88243 57.6188706,218.584015 L2.25412751,122.055084 C-0.751375838,116.80662 -0.751375838,110.358713 2.25412751,105.110249 L23.3240931,68.3891806 L49.3294051,113.576133 L88.5333932,181.719198 L166.984929,181.719198 Z" fill="#FBBC05"></path>
        <path d="M253.277263,122.055084 L197.91252,218.599261 C194.878454,223.899482 189.237639,227.16828 183.130438,227.165334 L140.833691,227.165334 L166.969683,181.732266 L206.201985,113.576133 L166.969683,45.4330676 L219.039113,45.4330676 L253.262017,105.110249 C256.294088,110.350155 256.2999,116.809731 253.277263,122.055084 L253.277263,122.055084 Z" fill="#EA4335"></path>
        <path d="M219.052181,45.4330676 L88.5333932,45.4330676 L49.3294051,113.576133 L23.3240931,68.3761126 L57.6188706,8.56825082 C60.6523791,3.26719022 66.2933003,-0.00249944884 72.4009521,0 L183.145684,0 C189.250612,0.00551497015 194.887156,3.27314929 197.925588,8.56825082 L219.052181,45.4330676 Z" fill="#4285F4"></path>
        <polygon fill="#E0E0E0" points="166.984929 45.4330676 206.188917 113.576133 166.969683 181.719198 88.5464612 181.719198 49.3294051 113.576133 88.5333932 45.4330676"></polygon>
        <circle fill="#FFFFFF" cx="127.765695" cy="113.576133" r="34.0791556"></circle>
        <path d="M57.6188706,9.97523839 C60.6529361,4.67501663 66.2937518,1.40621921 72.4009521,1.409167 L183.145684,1.409167 C189.250161,1.41423258 194.886601,4.68097551 197.925588,9.97523839 L218.255034,45.4330676 L219.067427,45.4330676 L197.925588,8.56825082 C194.892466,3.26786625 189.252558,-0.00171795464 183.145684,7.55805466e-07 L72.4009521,7.55805466e-07 C66.294274,0.0011230277 60.6550385,3.26983565 57.6188706,8.56825082 L23.3240931,68.3761126 L23.729201,69.0861404 L57.6188706,9.97523839 Z" fill="#FFFFFF" opacity="0.2"></path>
        <polyline fill-opacity="0.2" fill="#1A237E" points="49.3294051 113.576133 88.5333932 45.4330676 219.052181 45.4330676 218.239788 44.010834 88.5333932 44.010834 49.3294051 112.153899"></polyline>
        <path d="M2.25412751,106.519415 L23.3240931,69.7831001 L49.3294051,114.985298 L88.5333932,183.126186 L166.157289,183.126186 L166.984929,181.703952 L88.5333932,181.703952 L49.3294051,113.576133 L23.3240931,68.3761126 L2.25412751,105.097181 C0.666922826,107.892178 -0.102861021,111.07697 0.0325681922,114.288339 C0.141719098,111.558393 0.903512228,108.894358 2.25412751,106.519415 Z" fill="#FFFFFF" opacity="0.2"></path>
        <path d="M141.661331,225.727853 L72.4009521,225.727853 C66.2947251,225.727178 60.6555947,222.459358 57.6188706,217.161781 L2.25412751,120.632851 C0.903747905,118.257809 0.141971499,115.593832 0.0325681922,112.863927 C-0.115274918,116.076497 0.655330256,119.264687 2.25412751,122.055084 L57.6188706,218.599261 C60.6529361,223.899482 66.2937518,227.16828 72.4009521,227.165334 L140.848937,227.165334 L141.661331,225.727853 Z" fill="#BF360C" opacity="0.2"></path>
        <path d="M207.001311,113.576133 L167.797323,45.4330676 L166.984929,45.4330676 L206.201985,113.576133 L207.001311,113.576133 Z M253.277263,120.632851 L197.91252,217.177027 C194.878454,222.477249 189.237639,225.746046 183.130438,225.743099 L141.661331,225.743099 L140.833691,227.165332 L183.130438,227.165332 C189.235694,227.161046 194.873145,223.894198 197.91252,218.599261 L253.277263,122.055084 C254.869444,119.262059 255.639579,116.075814 255.498822,112.863927 C255.389419,115.593832 254.627643,118.257809 253.277263,120.632851 L253.277263,120.632851 Z" fill="#3E2723" opacity="0.2"></path>
        <path d="M219.052181,46.8422331 L253.277263,106.519415 C254.627878,108.894358 255.389671,111.558393 255.498822,114.288339 C255.646665,111.075768 254.87606,107.887578 253.277263,105.097181 L219.052181,45.4199996 L166.984929,45.4199996 L167.812569,46.8422331 L219.052181,46.8422331 Z M166.984929,183.141432 L207.001311,113.576133 L206.201985,113.576133 L166.984929,181.719198 L140.848937,227.152264 L141.661331,227.152264 L166.984929,183.141432 Z" fill="#FFFFFF" opacity="0.2"></path>
    </g>
</svg>

<svg width="256" height="228" xmlns="http://www.w3.org/2000/svg" preserveAspectRatio="xMidYMid"><path d="M166.985 181.72l-26.136 45.432H72.4a17.038 17.038 0 01-14.782-8.568L2.254 122.055a17.05 17.05 0 010-16.945l21.07-36.72 26.005 45.186 39.204 68.143h78.452z" fill="#FBBC05"/><path d="M253.277 122.055L197.913 218.6a17.023 17.023 0 01-14.783 8.566h-42.296l26.136-45.433 39.232-68.156-39.232-68.143h52.07l34.222 59.677a16.943 16.943 0 01.015 16.945z" fill="#EA4335"/><path d="M219.052 45.433H88.533L49.33 113.576l-26.005-45.2L57.62 8.568A17.023 17.023 0 0172.4 0h110.745a17.058 17.058 0 0114.78 8.568l21.126 36.865z" fill="#4285F4"/><path fill="#E0E0E0" d="M166.985 45.433l39.204 68.143-39.22 68.143H88.547L49.33 113.576l39.204-68.143z"/><circle fill="#FFF" cx="127.766" cy="113.576" r="34.079"/><path d="M57.619 9.975A17.023 17.023 0 0172.4 1.41h110.745a17.058 17.058 0 0114.78 8.566l20.329 35.458h.812l-21.14-36.866A17.023 17.023 0 00183.146 0H72.4a17.04 17.04 0 00-14.782 8.568L23.324 68.376l.405.71 33.89-59.11z" fill="#FFF" opacity=".2"/><path fill-opacity=".2" fill="#1A237E" d="M49.33 113.576l39.203-68.143h130.52l-.813-1.422H88.533L49.33 112.154"/><path d="M2.254 106.52l21.07-36.737 26.005 45.202 39.204 68.141h77.624l.828-1.422H88.533L49.33 113.576l-26.005-45.2-21.07 36.721a17.15 17.15 0 00-2.221 9.191 17.09 17.09 0 012.221-7.769z" fill="#FFF" opacity=".2"/><path d="M141.661 225.728h-69.26a17.04 17.04 0 01-14.782-8.566l-55.365-96.53a17.104 17.104 0 01-2.221-7.768c-.148 3.212.622 6.4 2.221 9.191L57.62 218.6a17.023 17.023 0 0014.782 8.566h68.448l.812-1.437z" fill="#BF360C" opacity=".2"/><path d="M207.001 113.576l-39.204-68.143h-.812l39.217 68.143h.8zm46.276 7.057l-55.364 96.544a17.023 17.023 0 01-14.783 8.566h-41.469l-.827 1.422h42.296a17.058 17.058 0 0014.783-8.566l55.364-96.544a17.052 17.052 0 002.222-9.191 17.104 17.104 0 01-2.222 7.769z" fill="#3E2723" opacity=".2"/><path d="M219.052 46.842l34.225 59.677a17.097 17.097 0 012.222 7.77 16.924 16.924 0 00-2.222-9.192L219.052 45.42h-52.067l.828 1.422h51.24zm-52.067 136.3L207 113.575h-.799l-39.217 68.143-26.136 45.433h.812l25.324-44.01z" fill="#FFF" opacity=".2"/></svg>
